!!!OTL: "Lied der Geisselbrueder" ES GING SICH UNSRE FRAUE
!!!ARE: Europa, Mitteleuropa, Deutschland, Niederrhein
!!!SCT: Z1382
!!!YEM: Copyright 1995, estate of Helmut Schaffrath.
**kern
*ICvox
*Ivox
*M2/4
*k[]
*a:
{8e
=1
8a
8g#
8a
8b
=2
8ccn
8a
8b
16r}
{16e
=3
8a
8gn
16gn
16fn
8e
=4
16e
16d
8cn
8r}
{8e
=5
8a
8g#
8a
8b
=6
8ccn
8a
8b
16r}
{16e
=7
8a
8gn
16gn
16fn
8e
=8
16e
16d
8cn
8r}
{16b
16b
=9
16ccn
16ee
16dd
16b
8.gn
16a
=10
16a
16g#
8a
8b}
{8e
=11
8a
8b
8ccn
8b
=12
4a
8b}
{8b
=13
16ccn
16ee
16dd
16b
8gn
8a
=14
16a
16g#
8a
8b}
{8e
=15
16a
16g#
16a
16b
16ccn
16b
16a
16ccn
=16
4b
8a}
==
!!!AGN: Erzaehlung, Romanze, religioes
!!!ONB: ESAC (Essen Associative Code) Database: ZUCCAL
!!!AMT: simple duple
!!!AIN: vox
!!!EED: Helmut Schaffrath
!!!EEV: 1.0
*-
